X: 2
T: The Curlew
R: reel
M: 4/4
L: 1/8
K: Bmin
e||fB (3BcB FB (3BcB|fece a^gae|fced cA (3ABA|EAce a^gba|fB (3BcB FB (3BcB|fece a^gae|g3e f3e|dBcA FBB:||A||Bdcd BF (3FGF|DF (3FGF Bcdf|ecBc AE (3EFE|CEAB (3cBA ec|Bdcd BF (3FGF|DF (3FGF BcdB|cBAc fcec|dBcA FBB:||


Tune 174	Setting 174

